images/female.svg

<svg width="12" height="17" viewBox="0 0 12 17" fill="none" xmlns="http://www.w3.org/2000/svg"><path d="M11.5 5.5C11.5 2.46 9.04 0 6 0S.5 2.46.5 5.5c0 2.7 1.94 4.93 4.5 5.4V13H3v2h2v2h2v-2h2v-2H7v-2.1c2.56-.47 4.5-2.7 4.5-5.4zm-9 0C2.5 3.57 4.07 2 6 2s3.5 1.57 3.5 3.5S7.93 9 6 9 2.5 7.43 2.5 5.5z" fill="#fff"/></svg>

<svg width="12" height="17" viewBox="0 0 12 17" fill="none" xmlns="http://www.w3.org/2000/svg">
<path d="M11.5 5.5C11.5 2.46 9.04 0 6 0C2.96 0 0.5 2.46 0.5 5.5C0.5 8.2 2.44 10.43 5 10.9V13H3V15H5V17H7V15H9V13H7V10.9C9.56 10.43 11.5 8.2 11.5 5.5ZM2.5 5.5C2.5 3.57 4.07 2 6 2C7.93 2 9.5 3.57 9.5 5.5C9.5 7.43 7.93 9 6 9C4.07 9 2.5 7.43 2.5 5.5Z" fill="white"/>
</svg>
